X:6562
T:Green Grows The Rushes O'. JC.162
M:C
L:1/8
Q:200
S:John Clare,Poet,Helpstone (1793-1864)
R:Reel
O:England
A:Northamptonshire
N:No TS or KS inMs. Triplet was 3 quavers
Z:P Headford
K:G
G2 GA BG G2|A2 AB cA A2|BAde cBAd|BABc AGEE:|!
|:gfge dBGd|gfga bee2|dgfg edBG|BABc ((3AGG)G2:|]
W:Song text exists. See Deacon.
